X:1
T:Title
%%score { ( 1 3 ) | ( 2 4 ) }
L:1/8
M:3/4
K:Bb
V:1 treble nm="Grand Piano"
V:3 treble 
V:2 bass 
V:4 bass 
V:1
 z2 z2[Q:1/4=100] [DF]>[DF] | [DF]2 [B,D]2 [DB]2 | [EB]2 [EA]2 F>F | F2 E2 c2 |[M:2/4] [DB]4 | %5
[M:1/4] B>B |[M:3/4] B2 c2 d2 | e2 d2 [Fc]>[Fc] | z2 z2 [DB]2 | c6 |[M:1/4] F>F | %11
[M:3/4] [DF]2 [B,D]2 [DB]2 | [EB]2 [EA]2 F>F | F2 E2 c2 |[M:2/4] [DB]4 |[M:1/4] B>B | %16
[M:3/4] B2 c2 d2 | e2 d2 [Gc]>[Gc] | [DFB]2 [EFc]2 [CFA]2 | [DFB]6 | F3 F F2 | F4 F2 | F6 | F6 | %24
 B3 B B2 | [Gc]4 z2 | [^Fd]6- | [Fd]4 z2 | d3 d d2 | d4 d2 | [Gf]6 | [Ge]6 | d3 c B2 | A4 c2 | %34
 [DB]6- |[M:2/4] [DB]4 |] %36
V:2
 z2 z2 [B,,B,]>[B,,B,] | [B,,B,]2 [B,,F,]2 [B,,F,]2 | [C,F,]2 [C,F,]2 [F,A,E]>[F,A,E] | %3
 [F,A,E]2 [F,A,C]2 [F,A,E]2 |[M:2/4] [B,,B,]4 |[M:1/4][K:treble] [B,DF]>[B,DF] | %6
[M:3/4] [B,DF]2 [A,CF]2 [_A,B,F]2 | [G,B,E]2 [F,B,F]2 [E,A,]>[E,A,] | [D,B,]2 [C,F,]2 .[B,,F,]2 | %9
 [F,A,E]6 |[M:1/4] [F,A,E]>[F,A,E] |[M:3/4] [B,,B,]2 [B,,F,]2 [B,,F,]2 | %12
 [C,F,]2 [C,F,]2 [F,A,E]>[F,A,E] | [F,A,E]2 [F,A,C]2 [F,A,E]2 |[M:2/4] [B,,B,]4 | %15
[M:1/4][K:treble] [B,DF]>[B,DF] |[M:3/4] [B,DF]2 [A,CF]2 [_A,B,F]2 | %17
 [G,B,E]2 [F,B,F]2 [E,E]>[E,E] | F,2 F,2 F,2 | B,,6 | [F,A,C]3 [F,A,C] [F,A,C]2 | %21
 [F,B,D]4 [F,B,D]2 | [F,CE]6 | [F,A,E]6 | [G,B,D]3 [G,B,D] [G,B,D]2 | B,2 z2 [E,G,]2 | [D,A,]6- | %27
 [D,A,]4 z2 | [B,F]3 [B,F] [B,F]2 | [G,B,G]4 [G,B,G]2 | [C,D]6 | [C,C]6 | [F,B,F]3 [F,EF] [F,DF]2 | %33
 [F,CE]4 [F,A,E]2 | [B,,F,B,]6- |[M:2/4] [B,,F,B,]4 |] %36
V:3
 x6 | x6 | x6 | x6 |[M:2/4] x4 |[M:1/4] x2 |[M:3/4] x6 | x6 | [FB]2 [EA]2 z B, | x6 |[M:1/4] x2 | %11
[M:3/4] x6 | x6 | x6 |[M:2/4] x4 |[M:1/4] x2 |[M:3/4] x6 | x6 | x6 | x6 | x6 | x6 | x6 | x6 | x6 | %25
 z2 A,2 [Gc]2 | x6 | x6 | x6 | x6 | x6 | x6 | x6 | x6 | x6 |[M:2/4] x4 |] %36
V:4
 x6 | x6 | x6 | x6 |[M:2/4] x4 |[M:1/4][K:treble] x2 |[M:3/4] x6 | x6 | x6 | x6 |[M:1/4] x2 | %11
[M:3/4] x6 | x6 | x6 |[M:2/4] x4 |[M:1/4][K:treble] x2 |[M:3/4] x6 | x6 | x6 | x6 | x6 | x6 | x6 | %23
 x6 | x6 | E,4 z2 | x6 | x6 | x6 | x6 | x6 | x6 | x6 | x6 | x6 |[M:2/4] x4 |] %36

